img/db.svg

<svg width="10" height="12" viewBox="0 0 10 12" fill="none" xmlns="http://www.w3.org/2000/svg">
<path d="M5.00042 0C2.27079 0 0.0578613 0.806662 0.0578613 1.80221V3.28103C0.0578613 4.27671 2.27079 5.08312 5.00042 5.08312C7.72992 5.08312 9.94285 4.27658 9.94285 3.28103V1.80221C9.94285 0.806662 7.72992 0 5.00042 0Z" fill="url(#paint0_linear)"/>
<path d="M5.00123 5.94485C2.39513 5.94485 0.24655 5.20897 0.0586691 4.27588C0.0497104 4.32042 0.0586691 6.71807 0.0586691 6.71807C0.0586691 7.71388 2.2716 8.52029 5.00123 8.52029C7.73073 8.52029 9.94366 7.71363 9.94366 6.71807C9.94366 6.71807 9.94921 4.32029 9.94038 4.27588C9.75224 5.2091 7.6072 5.94485 5.00123 5.94485Z" fill="url(#paint1_linear)"/>
<path d="M9.93899 7.75537C9.75124 8.68796 7.60733 9.42422 5.00123 9.42422C2.39513 9.42422 0.246047 8.68783 0.0581665 7.75537L0.0586713 10.1977C0.0586713 11.1934 2.2716 11.9998 5.00123 11.9998C7.73073 11.9998 9.94366 11.1931 9.94366 10.1977L9.93899 7.75537Z" fill="url(#paint2_linear)"/>
<defs>
<linearGradient id="paint0_linear" x1="0.0382458" y1="-0.0220034" x2="3.01977" y2="6.88737" gradientUnits="userSpaceOnUse">
<stop stop-color="#FECA52"/>
<stop offset="0.515625" stop-color="#FFCE5F"/>
<stop offset="1" stop-color="#FF644E"/>
</linearGradient>
<linearGradient id="paint1_linear" x1="0.0350606" y1="4.25751" x2="2.21662" y2="10.3155" gradientUnits="userSpaceOnUse">
<stop stop-color="#FECA52"/>
<stop offset="0.515625" stop-color="#FFCE5F"/>
<stop offset="1" stop-color="#FF644E"/>
</linearGradient>
<linearGradient id="paint2_linear" x1="0.0385499" y1="7.737" x2="2.221" y2="13.7943" gradientUnits="userSpaceOnUse">
<stop stop-color="#FECA52"/>
<stop offset="0.515625" stop-color="#FFCE5F"/>
<stop offset="1" stop-color="#FF644E"/>
</linearGradient>
</defs>
</svg>

<svg width="10" height="12" viewBox="0 0 10 12" fill="none" xmlns="http://www.w3.org/2000/svg"><path d="M5 0C2.27 0 .058.807.058 1.802v1.479C.058 4.277 2.27 5.083 5 5.083c2.73 0 4.943-.806 4.943-1.802V1.802C9.943.807 7.73 0 5 0z" fill="url(#a)"/><path d="M5.001 5.945c-2.606 0-4.754-.736-4.942-1.67-.01.045 0 2.443 0 2.443C.059 7.714 2.272 8.52 5 8.52c2.73 0 4.943-.806 4.943-1.802 0 0 .005-2.398-.004-2.442-.188.933-2.333 1.669-4.939 1.669z" fill="url(#b)"/><path d="M9.939 7.755c-.188.933-2.332 1.67-4.938 1.67S.246 8.687.058 7.754v2.443C.059 11.193 2.273 12 5.002 12c2.73 0 4.943-.807 4.943-1.802l-.005-2.443z" fill="url(#c)"/><defs><linearGradient id="a" x1=".038" y1="-.022" x2="3.02" y2="6.887" gradientUnits="userSpaceOnUse"><stop stop-color="#FECA52"/><stop offset=".516" stop-color="#FFCE5F"/><stop offset="1" stop-color="#FF644E"/></linearGradient><linearGradient id="b" x1=".035" y1="4.258" x2="2.217" y2="10.316" gradientUnits="userSpaceOnUse"><stop stop-color="#FECA52"/><stop offset=".516" stop-color="#FFCE5F"/><stop offset="1" stop-color="#FF644E"/></linearGradient><linearGradient id="c" x1=".039" y1="7.737" x2="2.221" y2="13.794" gradientUnits="userSpaceOnUse"><stop stop-color="#FECA52"/><stop offset=".516" stop-color="#FFCE5F"/><stop offset="1" stop-color="#FF644E"/></linearGradient></defs></svg>
